X: 1
T: Polska efter Jmt-Pelle
R: Slngpolska
S: nedtecknad efter en inspelning frn Korr av en fiolspelman som hade lrt sig den av nyckelharpisten Daniel Petterson som i sin tur hade lrt sig den av Sren Johansson frn Dorothea.
O: Landskap
Z: till abc av Nils L, 2008-06-06
M: 3/4
K: Gm
L: 1/16
{g^f}g4 d4 B4 | {cB}A2G^F G4>D4 | G2AB {/B}c2A2 d2D2 | G2AB {AB}A2^F2 D4 |
{g^f}g2g2 d2d2 B2B2 | A2G^F G4>D4 | G2AB {/B}c2A2 d2>B2 | A2G^F G8 ::
G2AB {/B}c2A2 A2D2 | G2AB G2A2 A2B2 | B2cd {/d}e2c2 {cd}c2A2 | B2cd B2c2 c2d2 |
d2=e^f {/f}a2{fa}f2 d4 | g2ab a2g^f g4 | G2AB A2G^F G2B,2 |1 A,2B,A, G,6 D2 :|2 A,2B,A, G,8 |]
